dist/svg/task-close-o.svg

<!-- Generated by Trend Micro Style Portal -->
<svg version="1.1" xmlns="http://www.w3.org/2000/svg" width="16" height="16" viewBox="0 0 16 16">
  <title>task-close-o</title>
  <path fill="rgb(34,34,34)" d="M15.86 14.83l0.14 0.17-1 1-1-1v-0.060l-1-0.94-1-1-3 3-1-1 3-3-3-3 1-1 3 3 3-3 1 1-3 3 2 2zM2 15h5v1h-5c-0.552 0-1-0.448-1-1v0-13c0-0.552 0.448-1 1-1v0h2v-1h8v1h2c0.552 0 1 0.448 1 1v0 5h-1v-5h-2v1h-8v-1h-2v13zM5 2h6v-1h-6v1z"></path>
</svg>

<svg width="16" height="16" viewBox="0 0 16 16" fill="rgb(34, 34, 34)" xmlns="http://www.w3.org/2000/svg"><title>task-close-o</title><path d="M15.86 14.83L16 15L15 16L14 15V14.94L13 14L12 13L9 16L8 15L11 12L8 9L9 8L12 11L15 8L16 9L13 12L15 14L15.86 14.83ZM2 15H7V16H2C1.448 16 1 15.552 1 15V2C1 1.448 1.448 1 2 1H4V0H12V1H14C14.552 1 15 1.448 15 2V7H14V2H12V3H4V2H2V15ZM5 2H11V1H5V2Z" fill="rgb(34, 34, 34)" fill-opacity="1.00"/></svg>
